svg/fluentui-system-icons/ic_fluent_showerhead_20_filled.svg

<svg width="20" height="20" viewBox="0 0 20 20" fill="none" xmlns="http://www.w3.org/2000/svg">
<path d="M15.483 2.42177L13.7888 4.11344C14.1996 4.37846 14.5886 4.69079 14.9483 5.05044C15.288 5.39017 15.5855 5.75612 15.8408 6.14178L17.5216 4.4634C18.0864 3.8995 18.086 2.98423 17.5207 2.42084C16.9574 1.85936 16.0459 1.85977 15.483 2.42177ZM4.85355 11.8536C5.04882 11.6583 5.04882 11.3417 4.85355 11.1464C4.65829 10.9512 4.34171 10.9512 4.14645 11.1464L2.14645 13.1464C1.95118 13.3417 1.95118 13.6583 2.14645 13.8536C2.34171 14.0488 2.65829 14.0488 2.85355 13.8536L4.85355 11.8536ZM6.85355 13.8536C7.04882 13.6583 7.04882 13.3417 6.85355 13.1464C6.65829 12.9512 6.34171 12.9512 6.14645 13.1464L4.14645 15.1464C3.95118 15.3417 3.95118 15.6583 4.14645 15.8536C4.34171 16.0488 4.65829 16.0488 4.85355 15.8536L6.85355 13.8536ZM8.85355 15.1464C9.04882 15.3417 9.04882 15.6583 8.85355 15.8536L6.85355 17.8536C6.65829 18.0488 6.34171 18.0488 6.14645 17.8536C5.95118 17.6583 5.95118 17.3417 6.14645 17.1464L8.14645 15.1464C8.34171 14.9512 8.65829 14.9512 8.85355 15.1464ZM13.7114 14.3564C13.7116 14.3564 13.7112 14.3563 13.7114 14.3564C13.6592 14.278 13.5985 14.2037 13.5294 14.1345L5.86824 6.4734C5.79857 6.40373 5.72356 6.34264 5.64453 6.29013C5.64455 6.29019 5.64451 6.29007 5.64453 6.29013C5.08206 5.91602 4.31577 5.97717 3.81975 6.47322C3.25427 7.03874 3.25428 7.9556 3.81979 8.52111L11.4809 16.1822C12.0465 16.7477 12.9633 16.7477 13.5288 16.1822C14.0252 15.6858 14.0864 14.9189 13.7114 14.3564ZM6.57535 5.7663C6.43828 5.62923 6.289 5.51181 6.13102 5.41405C8.4884 3.42043 12.0207 3.53486 14.2432 5.75736C16.4655 7.97967 16.5801 11.5116 14.587 13.8689C14.4896 13.712 14.3727 13.5637 14.2365 13.4274L6.57535 5.7663Z" fill="#212121"/>
</svg>

<svg xmlns="http://www.w3.org/2000/svg" width="20" height="20"><path d="m15.483 2.422-1.694 1.691a7.026 7.026 0 0 1 2.052 2.029l1.68-1.679a1.442 1.442 0 1 0-2.038-2.041Zm-10.63 9.432a.5.5 0 0 0-.707-.708l-2 2a.5.5 0 0 0 .708.708l2-2Zm2 2a.5.5 0 0 0-.707-.708l-2 2a.5.5 0 0 0 .708.708l2-2Zm2 1.292a.5.5 0 0 1 0 .708l-2 2a.5.5 0 0 1-.707-.708l2-2a.5.5 0 0 1 .708 0Zm4.858-.79a1.456 1.456 0 0 0-.182-.222l-7.66-7.66A1.449 1.449 0 1 0 3.82 8.521l7.66 7.66a1.448 1.448 0 0 0 2.23-1.826Zm-7.136-8.59a2.455 2.455 0 0 0-.444-.352 6 6 0 0 1 8.456 8.455 2.46 2.46 0 0 0-.35-.442l-7.662-7.66Z"/></svg>
